SVG_Azure_Grouped/AI/Object Anchors Account.svg

<?xml version="1.0" encoding="UTF-8" standalone="no"?>
<!-- Generated by Microsoft Visio, SVG Export Object Anchors Account.svg Page-1 -->

<svg
   xmlns:dc="http://purl.org/dc/elements/1.1/"
   xmlns:cc="http://creativecommons.org/ns#"
   xmlns:rdf="http://www.w3.org/1999/02/22-rdf-syntax-ns#"
   xmlns:svg="http://www.w3.org/2000/svg"
   xmlns="http://www.w3.org/2000/svg"
   xmlns:sodipodi="http://sodipodi.sourceforge.net/DTD/sodipodi-0.dtd"
   xmlns:inkscape="http://www.inkscape.org/namespaces/inkscape"
   width="0.78735685in"
   height="0.78735721in"
   viewBox="0 0 56.689602 56.69003"
   xml:space="preserve"
   class="st7"
   version="1.1"
   id="svg55"
   sodipodi:docname="Object Anchors Account.svg"
   style="font-size:12px;overflow:visible;color-interpolation-filters:sRGB;fill:none;fill-rule:evenodd;stroke-linecap:square;stroke-miterlimit:3"
   inkscape:version="0.92.5 (2060ec1f9f, 2020-04-08)"><metadata
   id="metadata59"><rdf:RDF><cc:Work
       rdf:about=""><dc:format>image/svg+xml</dc:format><dc:type
         rdf:resource="http://purl.org/dc/dcmitype/StillImage" /></cc:Work></rdf:RDF></metadata><sodipodi:namedview
   pagecolor="#ffffff"
   bordercolor="#666666"
   borderopacity="1"
   objecttolerance="10"
   gridtolerance="10"
   guidetolerance="10"
   inkscape:pageopacity="0"
   inkscape:pageshadow="2"
   inkscape:window-width="640"
   inkscape:window-height="480"
   id="namedview57"
   showgrid="false"
   inkscape:zoom="1.4193119"
   inkscape:cx="37.79513"
   inkscape:cy="37.786211"
   inkscape:window-x="0"
   inkscape:window-y="0"
   inkscape:window-maximized="0"
   inkscape:current-layer="svg55" />
	<style
   type="text/css"
   id="style2">
	<![CDATA[
		.st1 {fill:url(#grad0-6);stroke:none;stroke-linecap:butt;stroke-width:34}
		.st2 {fill:#50e6ff;stroke:none;stroke-linecap:butt;stroke-width:34}
		.st3 {fill:#9cebff;stroke:none;stroke-linecap:butt;stroke-width:34}
		.st4 {fill:#c3f1ff;stroke:none;stroke-linecap:butt;stroke-width:34}
		.st5 {fill:#32bedd;stroke:none;stroke-linecap:butt;stroke-width:34}
		.st6 {fill:#198ab3;stroke:none;stroke-linecap:butt;stroke-width:34}
		.st7 {fill:none;fill-rule:evenodd;font-size:12px;overflow:visible;stroke-linecap:square;stroke-miterlimit:3}
	]]>
	</style>

	<defs
   id="Patterns_And_Gradients">
		<linearGradient
   id="grad0-6"
   x1="0"
   y1="81.862777"
   x2="28.488134"
   y2="81.862777"
   gradientTransform="scale(0.88486016,1.1301221)"
   gradientUnits="userSpaceOnUse">
			<stop
   offset="0"
   stop-color="#42e8ca"
   stop-opacity="1"
   id="stop4" />
			<stop
   offset="1"
   stop-color="#37c2b1"
   stop-opacity="1"
   id="stop6" />
		</linearGradient>
	</defs>
	<g
   id="g53"
   transform="translate(-34.00044,-34.004286)">
		<title
   id="title10">Page-1</title>
		<g
   id="group18340-1"
   transform="translate(34,-34.0157)">
			<title
   id="title12">Object Anchors Account.18340</title>
			<g
   id="group18341-2">
				<title
   id="title14">Sheet.18341</title>
				<g
   id="shape18342-3"
   transform="translate(23.6405,-17.0866)">
					<title
   id="title16">Sheet.18342</title>
					<path
   d="M 1.06,113.86 11.62,93.13 a 1.12754,1.12441 0 0 1 2,-0.02 l 10.53,19.82 a 7.08425,7.06457 0 0 1 1.05,4.05 c 0,4.27 -5.64,7.73 -12.6,7.73 -6.96,0 -12.6,-3.46 -12.6,-7.73 a 5.34082,5.32598 0 0 1 1.06,-3.12 z"
   class="st1"
   id="path18"
   inkscape:connector-curvature="0"
   style="fill:url(#grad0-6);stroke:none;stroke-width:34;stroke-linecap:butt" />
				</g>
				<g
   id="shape18343-7"
   transform="translate(20.2926,-8.66142)">
					<title
   id="title21">Sheet.18343</title>
					<path
   d="m 12.94,102.27 v 14.94 L 0,124.71 v -14.96 z"
   class="st2"
   id="path23"
   inkscape:connector-curvature="0"
   style="fill:#50e6ff;stroke:none;stroke-width:34;stroke-linecap:butt" />
				</g>
				<g
   id="shape18344-9"
   transform="translate(7.34955,-8.66142)">
					<title
   id="title26">Sheet.18344</title>
					<path
   d="m 12.94,109.77 v 14.94 L 0,117.21 v -14.94 z"
   class="st3"
   id="path28"
   inkscape:connector-curvature="0"
   style="fill:#9cebff;stroke:none;stroke-width:34;stroke-linecap:butt" />
				</g>
				<g
   id="shape18345-11"
   transform="translate(7.34955,-23.5969)">
					<title
   id="title31">Sheet.18345</title>
					<path
   d="M 25.89,117.21 12.95,124.71 0,117.21 12.95,109.7 Z"
   class="st4"
   id="path33"
   inkscape:connector-curvature="0"
   style="fill:#c3f1ff;stroke:none;stroke-width:34;stroke-linecap:butt" />
				</g>
				<g
   id="shape18346-13"
   transform="translate(6.45889,-7.87402)">
					<title
   id="title36">Sheet.18346</title>
					<path
   d="m 27.22,101.74 0.44,-0.25 -0.44,-0.26 v -0.52 l -0.44,0.26 -12.95,-7.5 -12.95,7.5 -0.44,-0.26 v 0.52 l -0.44,0.25 0.44,0.26 v 14.93 l 12.95,7.51 v 0.53 l 0.45,-0.26 0.44,0.26 v -0.52 l 12.95,-7.5 z m -13.39,-7.25 12.06,6.99 -12.07,6.98 -2.99,-1.73 -9.05,-5.25 z M 1.34,116.16 v -13.9 l 12.05,6.98 v 13.91 z m 12.95,6.99 v -13.91 l 12.05,-6.98 v 13.9 z"
   class="st5"
   id="path38"
   inkscape:connector-curvature="0"
   style="fill:#32bedd;stroke:none;stroke-width:34;stroke-linecap:butt" />
				</g>
				<g
   id="shape18347-15">
					<title
   id="title41">Sheet.18347</title>
					<path
   d="M 1.82,83.47 A 1.81291,1.80787 0 0 1 0,81.67 V 69.82 a 1.81291,1.80787 0 0 1 1.82,-1.8 h 11.11 a 1.81607,1.81102 0 0 1 0,3.61 H 3.64 v 10.04 a 1.81291,1.80787 0 0 1 -1.82,1.8 z m 53.06,0 a 1.81291,1.80787 0 0 1 -1.82,-1.8 V 71.63 h -9.31 a 1.81607,1.81102 0 0 1 0,-3.61 h 11.13 a 1.81291,1.80787 0 0 1 1.81,1.8 v 11.85 a 1.81291,1.80787 0 0 1 -1.81,1.8 z M 12.94,124.71 H 1.82 A 1.81291,1.80787 0 0 1 0,122.9 v -11.84 a 1.81607,1.81102 0 0 1 3.63,0 v 10.03 h 9.31 a 1.81607,1.81102 0 0 1 0,3.62 z m 41.94,0 H 43.76 a 1.81607,1.81102 0 0 1 0,-3.62 h 9.3 v -10.03 a 1.81607,1.81102 0 0 1 3.63,0 v 11.84 a 1.81291,1.80787 0 0 1 -1.81,1.81 z"
   class="st2"
   id="path43"
   inkscape:connector-curvature="0"
   style="fill:#50e6ff;stroke:none;stroke-width:34;stroke-linecap:butt" />
				</g>
				<g
   id="shape18348-17"
   transform="translate(6.41918,-7.62359)">
					<title
   id="title46">Sheet.18348</title>
					<path
   d="m 2.52,101.31 a 1.47496,1.47087 0 1 1 -1.47,-1.46 1.47496,1.47087 0 0 1 1.47,1.46 z m 11.35,-8.98 a 1.4718,1.46772 -180 1 0 1.48,1.47 1.46865,1.46457 -180 0 0 -1.48,-1.47 z m 12.92,7.52 a 1.47496,1.47087 -180 1 0 1.48,1.46 1.4718,1.46772 -180 0 0 -1.48,-1.46 z m -12.92,7.42 a 1.47496,1.47087 -180 1 0 1.48,1.47 1.4718,1.46772 -180 0 0 -1.48,-1.47 z m -12.82,7.59 a 1.47496,1.47087 -180 1 0 1.47,1.47 1.47496,1.47087 -180 0 0 -1.47,-1.47 z m 12.82,7.34 a 1.4718,1.46772 -180 1 0 1.48,1.47 1.4718,1.46772 -180 0 0 -1.48,-1.47 z m 12.92,-7.34 a 1.47496,1.47087 -180 1 0 1.48,1.47 1.47496,1.47087 -180 0 0 -1.48,-1.47 z"
   class="st6"
   id="path48"
   inkscape:connector-curvature="0"
   style="fill:#198ab3;stroke:none;stroke-width:34;stroke-linecap:butt" />
				</g>
			</g>
		</g>
	</g>
</svg>

<?xml version="1.0" encoding="UTF-8" standalone="no"?>
<!DOCTYPE svg PUBLIC "-//W3C//DTD SVG 1.1//EN" "http://www.w3.org/Graphics/SVG/1.1/DTD/svg11.dtd">
<!-- Generated by Microsoft Visio, SVG Export Object Anchors Account.svg Page-1 -->
<svg xmlns="http://www.w3.org/2000/svg" xmlns:xlink="http://www.w3.org/1999/xlink" xmlns:ev="http://www.w3.org/2001/xml-events"
		width="1.73185in" height="1.73206in" viewBox="0 0 124.693 124.709" xml:space="preserve" color-interpolation-filters="sRGB"
		class="st7">
	<style type="text/css">
	<![CDATA[
		.st1 {fill:url(#grad0-6);stroke:none;stroke-linecap:butt;stroke-width:34}
		.st2 {fill:#50e6ff;stroke:none;stroke-linecap:butt;stroke-width:34}
		.st3 {fill:#9cebff;stroke:none;stroke-linecap:butt;stroke-width:34}
		.st4 {fill:#c3f1ff;stroke:none;stroke-linecap:butt;stroke-width:34}
		.st5 {fill:#32bedd;stroke:none;stroke-linecap:butt;stroke-width:34}
		.st6 {fill:#198ab3;stroke:none;stroke-linecap:butt;stroke-width:34}
		.st7 {fill:none;fill-rule:evenodd;font-size:12px;overflow:visible;stroke-linecap:square;stroke-miterlimit:3}
	]]>
	</style>

	<defs id="Patterns_And_Gradients">
		<linearGradient id="grad0-6" x1="0" y1="0" x2="1" y2="0" gradientTransform="rotate(90 0.5 0.5)">
			<stop offset="0" stop-color="#42e8ca" stop-opacity="1"/>
			<stop offset="1" stop-color="#37c2b1" stop-opacity="1"/>
		</linearGradient>
	</defs>
	<g>
		<title>Page-1</title>
		<g id="group17910-1" transform="translate(34,-34.0157)">
			<title>Object Anchors Account.17910</title>
			<g id="group17911-2">
				<title>Sheet.17911</title>
				<g id="shape17912-3" transform="translate(23.6405,-17.0866)">
					<title>Sheet.17912</title>
					<path d="M1.06 113.86 L11.62 93.13 A1.12754 1.12441 0 0 1 13.62 93.11 L24.15 112.93 A7.08425 7.06457 0 0 1 25.2
								 116.98 C25.2 121.25 19.56 124.71 12.6 124.71 C5.64 124.71 0 121.25 0 116.98 A5.34082 5.32598 0 0
								 1 1.06 113.86 Z" class="st1"/>
				</g>
				<g id="shape17913-7" transform="translate(20.2926,-8.66142)">
					<title>Sheet.17913</title>
					<path d="M12.94 102.27 L12.94 117.21 L0 124.71 L0 109.75 L12.94 102.27 Z" class="st2"/>
				</g>
				<g id="shape17914-9" transform="translate(7.34955,-8.66142)">
					<title>Sheet.17914</title>
					<path d="M12.94 109.77 L12.94 124.71 L0 117.21 L0 102.27 L12.94 109.77 Z" class="st3"/>
				</g>
				<g id="shape17915-11" transform="translate(7.34955,-23.5969)">
					<title>Sheet.17915</title>
					<path d="M25.89 117.21 L12.95 124.71 L0 117.21 L12.95 109.7 L25.89 117.21 Z" class="st4"/>
				</g>
				<g id="shape17916-13" transform="translate(6.45889,-7.87402)">
					<title>Sheet.17916</title>
					<path d="M27.22 101.74 L27.66 101.49 L27.22 101.23 L27.22 100.71 L26.78 100.97 L13.83 93.47 L0.88 100.97 L0.44
								 100.71 L0.44 101.23 L0 101.48 L0.44 101.74 L0.44 116.67 L13.39 124.18 L13.39 124.71 L13.84 124.45
								 L14.28 124.71 L14.28 124.19 L27.23 116.69 L27.22 101.74 ZM13.83 94.49 L25.89 101.48 L13.82 108.46
								 L10.83 106.73 L1.78 101.48 L13.83 94.49 ZM1.34 116.16 L1.34 102.26 L13.39 109.24 L13.39 123.15 L1.34
								 116.16 ZM14.29 123.15 L14.29 109.24 L26.34 102.26 L26.34 116.16 L14.29 123.15 Z" class="st5"/>
				</g>
				<g id="shape17917-15">
					<title>Sheet.17917</title>
					<path d="M1.82 83.47 A1.81291 1.80787 0 0 1 -0 81.67 L0 69.82 A1.81291 1.80787 0 0 1 1.82 68.02 L12.93 68.02
								 A1.81607 1.81102 0 0 1 12.93 71.63 L3.64 71.63 L3.64 81.67 A1.81291 1.80787 0 0 1 1.82 83.47 ZM54.88
								 83.47 A1.81291 1.80787 0 0 1 53.06 81.67 L53.06 71.63 L43.75 71.63 A1.81607 1.81102 0 0 1 43.75
								 68.02 L54.88 68.02 A1.81291 1.80787 0 0 1 56.69 69.82 L56.69 81.67 A1.81291 1.80787 0 0 1 54.88
								 83.47 ZM12.94 124.71 L1.82 124.71 A1.81291 1.80787 0 0 1 0 122.9 L0 111.06 A1.81607 1.81102 0 0
								 1 3.63 111.06 L3.63 121.09 L12.94 121.09 A1.81607 1.81102 0 0 1 12.94 124.71 ZM54.88 124.71 L43.76
								 124.71 A1.81607 1.81102 0 0 1 43.76 121.09 L53.06 121.09 L53.06 111.06 A1.81607 1.81102 0 0 1 56.69
								 111.06 L56.69 122.9 A1.81291 1.80787 0 0 1 54.88 124.71 Z" class="st2"/>
				</g>
				<g id="shape17918-17" transform="translate(6.41918,-7.62359)">
					<title>Sheet.17918</title>
					<path d="M2.52 101.31 A1.47496 1.47087 0 1 1 1.05 99.85 A1.47496 1.47087 0 0 1 2.52 101.31 ZM13.87 92.33 A1.4718
								 1.46772 -180 1 0 15.35 93.8 A1.46865 1.46457 -180 0 0 13.87 92.33 ZM26.79 99.85 A1.47496 1.47087
								 -180 1 0 28.27 101.31 A1.4718 1.46772 -180 0 0 26.79 99.85 ZM13.87 107.27 A1.47496 1.47087 -180
								 1 0 15.35 108.74 A1.4718 1.46772 -180 0 0 13.87 107.27 ZM1.05 114.86 A1.47496 1.47087 -180 1 0 2.52
								 116.33 A1.47496 1.47087 -180 0 0 1.05 114.86 ZM13.87 122.2 A1.4718 1.46772 -180 1 0 15.35 123.67
								 A1.4718 1.46772 -180 0 0 13.87 122.2 ZM26.79 114.86 A1.47496 1.47087 -180 1 0 28.27 116.33 A1.47496
								 1.47087 -180 0 0 26.79 114.86 Z" class="st6"/>
				</g>
			</g>
		</g>
	</g>
</svg>
